X:1
T:Quia vidisti me
T:Luca Marenzio
T:John 20:29
T:Quia vidisti me
T:Copyright © 2016 by The Choral Public Domain Library. Edition may be freely distributed, duplicated, performed or recorded.
T:Copyright © 2016 by The Choral Public Domain Library. Edition may be freely distributed, duplicated, performed or recorded.
T:Copyright © 2016 by The Choral Public Domain Library. Edition may be freely distributed, duplicated, performed or recorded.
T:Copyright © 2016 by The Choral Public Domain Library. Edition may be freely distributed, duplicated, performed or recorded.
T:Copyright © 2016 by The Choral Public Domain Library. Edition may be freely distributed, duplicated, performed or recorded.
T:Copyright © 2016 by The Choral Public Domain Library. Edition may be freely distributed, duplicated, performed or recorded.
T:Copyright © 2016 by The Choral Public Domain Library. Edition may be freely distributed, duplicated, performed or recorded.
C:Luca Marenzio
Z:John 20:29
Z:Copyright © 2016 by The Choral Public Domain Library. Edition may be freely distributed, duplicated, performed or recorded.
%%score [ 1 2 3 4 ]
L:1/8
Q:1/4=52
M:4/2
K:Ab
V:1 treble nm="Soprano" snm="S"
V:2 treble nm="Alto" snm="A"
V:3 treble-8 transpose=-12 nm="Tenor" snm="T"
V:4 bass nm="Bass" snm="B"
V:1
 z16 | A8 A4 B4 | c4 A4 d8 | c8 B8 | z4 c4 d4 e4 | A16 | z4 c8 d4 | e8 A8 | z4 G4 A4 B4 | E16 | %10
w: |Qui- a vi-|di- sti me,|Tho- ma,|cre- di- di-|sti,|cre- di-|di- sti,|cre- di- di-|sti,|
 z4 E4 G4 A4 | B4 G4 c8 | B8 A4 c4- | c4 B4 (c4 =d4) | e4 E4 G4 A4 | B4 G4 c8 | B4 G4 z4 A4 | %17
w: qui- a vi-|di- sti me,|Tho- ma, cre-|* di- di- *|sti, qui- a vi-|di- sti me,|Tho- ma, cre-|
 B4 c4 B8 | z4 A4 A8 | G6 F2 G4 =A4 | B8 _A8- | A8 z4 A4 | G2 F2 G2 A2 B4 E2 A2- | (A2 GF G4) A8 | %24
w: di- di- sti:|Be- a-|ti qui non vi-|de- runt,|_ cre-|* * * * * di- de-|* * * * runt,|
 z16 | z4 A4 A8 | A6 F2 A4 A4 | _G8 (F2 E2 F2 =G2 | A4) c4 c8 | B6 A2 B4 c4 | d8 (c6 BA | B8) z8 | %32
w: |Be- a-|ti qui non vi-|de- runt, _ _ _|_ Be- a-|ti qui non vi-|de- runt, _ _|_|
 z8 z4 A4 | G2 F2 G2 A2 B4 E2 A2- | (A2 GF G4) A8 ||[M:3/2][Q:1/2=140] z12 | E4 G4 =A4 | %37
w: cre-|* * * * * di- de-|* * * * runt.||al- le- lu-|
 (B6 A2 G4) | A6 G2 F4 | G8 z4 | B6 A2 G4 | A8 z4 | E4 G4 =A4 | B8 z4 | A4 c4 =d4 | e4 E4 G4 | %46
w: ia, _ _|al- le- lu-|ia,|al- le- lu-|ia,|al- le- lu-|ia,|al- le- lu-|ia, al- le-|
 =A4 B8 | c6 B2 A4 | G8 z4 | E4 G4 =A4 | B8 e4- | e2 d2 c6 B2 | A8 G4 | A16 |] %54
w: lu- ia,|al- le- lu-|ia,|al- le- lu-|ia, al-|* le- lu- *||ia.|
V:2
 z4 A,4 C4 D4 | E4 C4 F8 | E8 D4 F4- | F4 E4 (F4 G4) | (A6 G2 F4 E2 D2 | C4) E4 E4 F4 | G4 E4 A8 | %7
w: Qui- a vi-|di- sti me,|Tho- ma, cre-|* di- di- *|sti, _ _ _ _|_ qui- a vi-|di- sti me,|
 G8 F4 C4 | D4 E4 A,4 E4 | C8 (C4 B,2 A,2) | B,8 z8 | E8 E4 F4 | G4 E4 A8 | G8 F8 | (E6 D2 C8) | %15
w: Tho- ma, cre-|di- si- sti, cre-|di- di- * *|sti,|qui- a vi-|di- sti me,|Tho- ma,|cre- * *|
 B,4 E6 C2 F4- | F2 ED E4 C4 F4 | G4 (A6 GF G4) | A4 E4 E8 | E6 C2 E4 E4 | F12 E2 D2 | %21
w: di- di- * *|* * * * sti, cre-|di- di- * * *|sti: Be- a-|ti qui non vi-|de- * *|
 C2 =D2 E6 DC D4 | E8 z8 | z4 D4 C2 B,2 C2 D2 | E4 A,2 (D4 CB, C4) | D4 F4 F8 | E6 D2 E4 F4 | %27
w: |runt,|cre- * * * *|* di- de- * * *|runt. Be- a-|ti qui non vi-|
 (B,4 C4) D8 | z4 A4 A8 | G6 F2 G4 E4 | (F4 G4) A8 | z4 E4 D4 C4 | B,8 (A,2 B,2 C2 A,2 | B,8) z8 | %34
w: de- * runt,|Be- a-|ti qui non vi-|de- * runt,|et cre- di-|de- runt. _ _ _|_|
 z16 ||[M:3/2] A,4 C4 =D4 | E8 z4 | D6 C2 B,4 | A,8 z4 | E,4 G,4 =A,4 | B,8 z4 | F,4 A,4 B,4 | %42
w: |Al- le- lu-|ia,|al- le- lu-|ia,|al- le- lu-|ia,|al- le- lu-|
 C8 z4 | B,4 D4 E4 | (F6 G2 A2 F2 | G4) G6 F2 | (E8 =D4) | E8 z4 | E6 _D2 C4 | B,8 z4 | E6 D2 C4 | %51
w: ia,|al- le- lu-|ia, _ _ _|_ al- le-|lu- *|ia,|al- le- lu-|ia,|al- le- lu-|
 B,4 C8 | E8 B,4 | C16 |] %54
w: ia, al-|le- lu-|ia.|
V:3
 A8 A4 B4 | c4 A4 d8 | c8 B8 | z4 c4 d4 e4 | A4 A4 B4 c2 d2 | e2 d2 c2 B2 A2 G2 F4 | E8 z4 A4 | %7
w: Qui- a vi-|di- sti me,|Tho- ma,|cre- di- di-|sti, cre- di- di- *||sti, cre-|
 B4 c4 F6 G2 | A2 B2 c8 B4- | B2 A2 A8 G2 F2 | G2 A2 B2 G2 c8 | B8 z4 A4 | B8 c8 | e8 z8 | %14
w: di- di- sti, _|_ _ _ cre-|* di- di- * *||sti, cre-|di- di-|sti,|
 z4 E4 E4 F4 | G4 E4 A8 | G8 F8 | z4 c4 d4 e4 | A4 c4 c8 | B6 A2 B4 c4 | d8 (c6 B2 | A16) | %22
w: qui- a vi-|di- sti me,|Tho- ma,|cre- di- di-|sti: Be- a-|ti qui non vi-|de- runt, _|_|
 z4 e4 _d4 c4 | B8 A8 | z16 | z4 d4 d8 | c6 B2 c4 =d4 | e8 A8 | z4 A4 A8 | e6 f2 e4 c4 | %30
w: et cre- di-|de- runt||Be- a-|ti qui non vi-|de- runt,|Be- a-|ti qui non vi-|
 B8 (A6 GF | E8) z8 | z16 | z4 e4 d4 c4 | B8 A8 ||[M:3/2] z12 | e6 d2 c4 | B8 z4 | A4 c4 =d4 | %39
w: de- runt, _ _|_||et cre- di-|de- runt.||Al- le- lu-|ia,|al- le- lu-|
 e8 z4 | B4 d4 e4 | f8 z4 | e6 d2 c4 | (d6 c2 B4) | A6 G2 F4 | E4 B4 B4 | c4 F8 | A6 G2 F4 | %48
w: ia,|al- le- lu-|ia,|Al- le- lu-|ia, _ _|al- le- lu-|ia, al- le-|lu- ia,|al- le- lu-|
 B8 z4 | e6 d2 c4 | B8 z4 | z4 e6 d2 | (c4 B8) | A16 |] %54
w: ia,|al- le- lu-|ia,|al- le-|lu- *|ia.|
V:4
 z16 | z16 | z16 | z16 | z16 | A,,8 C,4 D,4 | E,4 C,4 F,8 | E,8 D,4 F,4- | F,4 E,4 (F,4 G,4) | %9
w: |||||Qui- a vi-|di- sti me,|Tho- ma, cre-|* di- di- *|
 A,8 z8 | E,8 E,4 F,4 | G,4 E,4 A,8 | G,8 F,8 | z4 G,4 A,4 B,4 | E,8 z8 | z8 z4 A,,4 | %16
w: sti,|qui- a vi-|di- sti me,|Tho- ma,|cre- di- di-|sti,|cre-|
 B,,4 C,4 F,,8 | z16 | z4 A,4 A,8 | E,6 F,2 E,4 C,4 | B,,2 C,2 D,2 E,2 F,2 G,2 A,4- | %21
w: di- di- sti:||Be- a-|ti qui non vi-|de- * * * * * *|
 A,2 G,2 F,2 E,2 F,8 | E,8 z8 | z8 z4 A,4 | _G,4 F,4 E,8 | D,4 D,4 D,8 | A,6 B,2 A,4 F,4 | %27
w: |runt,|et|cre- di- de-|runt Be- a-|ti qui non vi-|
 E,8 (D,6 C,B,, | A,,16) | z16 | z8 z4 A,4 | G,2 F,2 G,2 A,2 B,4 E,2 A,2- | (A,2 G,F, G,4) (A,8 | %33
w: de- runt, _ _|_||cre-|* * * * * di- de-|* * * * runt.|
 E,8) z8 | z16 ||[M:3/2] A,6 G,2 F,4 | E,8 z4 | B,,4 D,4 E,4 | F,8 z4 | E,6 D,2 C,4 | B,,8 z4 | %41
w: _||Al- le- lu-|ia,|Al- le- lu-|ia,|al- le- lu-|ia,|
 F,6 E,2 D,4 | C,8 z4 | B,6 A,2 G,4 | F,8 z4 | z4 E,6 D,2 | C,4 B,,8 | z12 | E,4 G,4 A,4 | E,8 z4 | %50
w: al- le- lu-|ia,|al- le- lu-|ia,|al- le-|lu- ia,||al- le- lu-|ia,|
 E,4 G,4 A,4 | E,4 A,,4 C,4- | C,4 E,8 | A,,16 |] %54
w: al- le- lu-|ia, al- le-|* lu-|ia,|

